symbolic/32x32/apps/bauh.svg

<svg xmlns="http://www.w3.org/2000/svg" width="32" height="32" version="1">
 <path style="opacity:0.2" d="m 16.077583,1.9999996 v 0.00141 A 3.2974327,3.2972161 0 0 0 14.35102,2.440379 L 4.64898,8.0421172 A 3.2974327,3.2972161 0 0 0 3,10.898211 v 11.203477 a 3.2974327,3.2972161 0 0 0 1.64898,2.854678 l 9.70204,5.601739 a 3.2974327,3.2972161 0 0 0 3.29796,0 l 9.70204,-5.601739 A 3.2974327,3.2972161 0 0 0 29,22.101688 V 10.898211 A 3.2974327,3.2972161 0 0 0 27.35102,8.0421172 L 17.64898,2.440379 A 3.2974327,3.2972161 0 0 0 16.077583,1.9999996 Z"/>
 <path style="fill:#a86743" d="M 16.077583,1 V 1.00141 A 3.2974327,3.2972161 0 0 0 14.35102,1.4403794 L 4.64898,7.0421176 A 3.2974327,3.2972161 0 0 0 3,9.8982119 V 21.101688 a 3.2974327,3.2972161 0 0 0 1.64898,2.854678 l 9.70204,5.601739 a 3.2974327,3.2972161 0 0 0 3.29796,0 l 9.70204,-5.601739 A 3.2974327,3.2972161 0 0 0 29,21.101688 V 9.8982119 A 3.2974327,3.2972161 0 0 0 27.35102,7.0421176 L 17.64898,1.4403794 A 3.2974327,3.2972161 0 0 0 16.077583,1 Z"/>
 <path style="fill:#cc8342" d="M 16,1.002832 A 3.2974327,3.2972161 0 0 0 14.35102,1.4403794 L 4.64898,7.0421176 A 3.2974327,3.2972161 0 0 0 3,9.8982119 V 21.101688 a 3.2974327,3.2972161 0 0 0 1.64898,2.854678 l 9.70204,5.601739 A 3.2974327,3.2972161 0 0 0 16,29.997068 Z"/>
 <rect style="opacity:0.2" width="14" height="14" x="9" y="2" rx="7" ry="7"/>
 <path style="fill:#2e0000;opacity:0.5" d="M 16.078125 1 L 16.078125 1.0019531 A 3.2974327 3.2972161 0 0 0 14.351562 1.4394531 L 4.6484375 7.0429688 A 3.2974327 3.2972161 0 0 0 3.1289062 8.9980469 A 3.2974327 3.2972161 0 0 0 4.6484375 10.957031 L 14.351562 16.558594 A 3.2974327 3.2972161 0 0 0 17.648438 16.558594 L 27.351562 10.957031 A 3.2974327 3.2972161 0 0 0 28.873047 8.9980469 A 3.2974327 3.2972161 0 0 0 27.351562 7.0429688 L 17.648438 1.4394531 A 3.2974327 3.2972161 0 0 0 16.078125 1 z"/>
 <path style="fill:#ffffff;opacity:0.1" d="M 16.078125 1 L 16.078125 1.0019531 A 3.2974327 3.2972161 0 0 0 14.351562 1.4394531 L 4.6484375 7.0429688 A 3.2974327 3.2972161 0 0 0 3.1289062 8.9980469 A 3.2974327 3.2972161 0 0 0 3.3164062 9.4960938 A 3.2974327 3.2972161 0 0 1 4.6484375 8.0429688 L 14.351562 2.4394531 A 3.2974327 3.2972161 0 0 1 16.078125 2.0019531 L 16.078125 2 A 3.2974327 3.2972161 0 0 1 17.648438 2.4394531 L 27.351562 8.0429688 A 3.2974327 3.2972161 0 0 1 28.683594 9.5019531 A 3.2974327 3.2972161 0 0 0 28.873047 8.9980469 A 3.2974327 3.2972161 0 0 0 27.351562 7.0429688 L 17.648438 1.4394531 A 3.2974327 3.2972161 0 0 0 16.078125 1 z"/>
 <rect style="fill:#206fe4" width="14" height="14" x="9" y="1" rx="7" ry="7"/>
 <path style="fill:#c6ff87" d="M 15.999999,3 C 13.23857,3 11,5.2385708 11,8.0000004 11,10.76143 13.23857,13 15.999999,13 18.76143,13 21,10.76143 21,8.0000004 21,5.2385708 18.76143,3 15.999999,3 Z m -0.500836,0.9556358 c 0.05831,-0.00609 0.132312,0.00349 0.191127,0 0.0071,0.027883 -0.04232,0.12685 -0.108819,0.2720425 -0.423353,0.9248524 -0.447318,2.0089655 -0.05442,2.5878922 0.0711,0.1049614 0.135323,0.2046475 0.135323,0.2176325 0,0.012975 -0.07652,0.026508 -0.163225,0.026508 -0.20353,0 -0.396093,-0.12365 -0.789622,-0.4352683 -0.174813,-0.1384315 -0.401622,-0.2544432 -0.489672,-0.2720433 -0.138264,-0.027626 -0.175482,-0.015666 -0.35435,0.1632259 -0.166424,0.1663934 -0.217635,0.2564316 -0.217635,0.4087616 0,0.5776541 0.685383,1.0355967 1.9601,1.3058033 1.731115,0.3668993 2.157888,0.6968601 2.205637,1.6071434 0.05996,1.1414694 -0.548109,2.0024824 -1.879185,2.6688054 -0.158874,0.07956 -0.259795,0.109609 -0.326452,0.135325 -0.02954,-0.0027 -0.05148,0.0026 -0.08094,0 -0.01142,-0.0353 -0.0279,-0.116901 -0.0279,-0.272044 0,-0.606269 -0.238407,-1.230263 -0.598494,-1.579242 -0.09665,-0.09368 -0.36812,-0.291799 -0.599881,-0.435266 -0.231754,-0.14346 -0.465472,-0.309761 -0.517579,-0.3808614 -0.08636,-0.1179867 -0.09285,-0.1907909 -0.02651,-0.4087608 0.120913,-0.3980942 0.264311,-0.6203968 0.544086,-0.8719301 0.146673,-0.1318708 0.293957,-0.2414983 0.32645,-0.2441408 0.0325,-0.00258 -0.186288,-0.069242 -0.516183,-0.1367192 C 13.78115,8.2448915 13.297463,8.1028538 13.047969,8.0125563 12.591746,7.8474772 11.976994,7.5016479 11.742164,7.250838 c -0.01,-0.010618 -0.01926,-0.018492 -0.0279,-0.0279 0.336456,-1.3402242 1.280391,-2.4380073 2.532088,-2.9673547 0.261902,-0.1107751 0.532521,-0.1872425 0.817523,-0.245535 0.14196,-0.029008 0.28869,-0.039508 0.435267,-0.054417 z m 4.084823,2.0424122 c 0.102332,0.06325 0.488186,0.899405 0.598491,1.3071984 0.142414,0.5264625 0.132105,1.4371141 0,1.9601007 C 20.132207,9.464398 20.068593,9.6509288 20.047155,9.674108 20.025715,9.697291 19.947455,9.5641076 19.856027,9.4020654 19.764581,9.2400464 19.47238,8.8950855 19.22963,8.6389521 18.528942,7.8995822 18.418547,7.5144647 18.712052,6.9243863 18.86007,6.6268297 19.504779,5.9491621 19.583986,5.998048 Z"/>
 <path style="opacity:0.2;fill:#ffffff" d="M 3.3164062 9.4960938 A 3.2974327 3.2972161 0 0 0 3.1289062 9.9980469 A 3.2974327 3.2972161 0 0 0 4.6484375 11.957031 L 14.351562 17.558594 A 3.2974327 3.2972161 0 0 0 17.648438 17.558594 L 27.351562 11.957031 A 3.2974327 3.2972161 0 0 0 28.873047 9.9980469 A 3.2974327 3.2972161 0 0 0 28.683594 9.5019531 A 3.2974327 3.2972161 0 0 1 27.351562 10.957031 L 17.648438 16.558594 A 3.2974327 3.2972161 0 0 1 14.351562 16.558594 L 4.6484375 10.957031 A 3.2974327 3.2972161 0 0 1 3.3164062 9.4960938 z"/>
 <path style="fill:#ffffff;opacity:0.1" d="M 16 1 C 12.122 1 9 4.122 9 8 C 9 8.1690825 9.0137169 8.3339879 9.0253906 8.5 C 9.2808092 4.8577893 12.290624 2 16 2 C 19.709376 2 22.719191 4.8577893 22.974609 8.5 C 22.986283 8.3339879 23 8.1690825 23 8 C 23 4.122 19.878 1 16 1 z"/>
</svg>

<svg xmlns="http://www.w3.org/2000/svg" width="32" height="32" version="1"><path style="opacity:.2" d="M16.078 2v.001a3.297 3.297 0 0 0-1.727.44L4.649 8.041A3.297 3.297 0 0 0 3 10.898v11.204a3.297 3.297 0 0 0 1.649 2.854l9.702 5.602a3.297 3.297 0 0 0 3.298 0l9.702-5.602A3.297 3.297 0 0 0 29 22.102V10.898a3.297 3.297 0 0 0-1.649-2.856L17.649 2.44A3.297 3.297 0 0 0 16.078 2z"/><path style="fill:#a86743" d="M16.078 1v.001a3.297 3.297 0 0 0-1.727.44L4.649 7.041A3.297 3.297 0 0 0 3 9.898v11.204a3.297 3.297 0 0 0 1.649 2.854l9.702 5.602a3.297 3.297 0 0 0 3.298 0l9.702-5.602A3.297 3.297 0 0 0 29 21.102V9.898a3.297 3.297 0 0 0-1.649-2.856L17.649 1.44A3.297 3.297 0 0 0 16.078 1z"/><path style="fill:#cc8342" d="M16 1.003a3.297 3.297 0 0 0-1.649.437L4.649 7.042A3.297 3.297 0 0 0 3 9.898v11.204a3.297 3.297 0 0 0 1.649 2.854l9.702 5.602a3.297 3.297 0 0 0 1.649.44z"/><rect style="opacity:.2" width="14" height="14" x="9" y="2" rx="7" ry="7"/><path style="fill:#2e0000;opacity:.5" d="M16.078 1v.002a3.297 3.297 0 0 0-1.726.437L4.648 7.043a3.297 3.297 0 0 0-1.52 1.955 3.297 3.297 0 0 0 1.52 1.959l9.704 5.602a3.297 3.297 0 0 0 3.296 0l9.704-5.602a3.297 3.297 0 0 0 1.521-1.959 3.297 3.297 0 0 0-1.521-1.955l-9.704-5.604A3.297 3.297 0 0 0 16.078 1z"/><path style="fill:#fff;opacity:.1" d="M16.078 1v.002a3.297 3.297 0 0 0-1.726.437L4.648 7.043a3.297 3.297 0 0 0-1.52 1.955 3.297 3.297 0 0 0 .188.498 3.297 3.297 0 0 1 1.332-1.453l9.704-5.604a3.297 3.297 0 0 1 1.726-.437V2a3.297 3.297 0 0 1 1.57.44l9.704 5.603a3.297 3.297 0 0 1 1.332 1.459 3.297 3.297 0 0 0 .189-.504 3.297 3.297 0 0 0-1.521-1.955l-9.704-5.604A3.297 3.297 0 0 0 16.078 1z"/><rect style="fill:#206fe4" width="14" height="14" x="9" y="1" rx="7" ry="7"/><path style="fill:#c6ff87" d="M16 3a5 5 0 1 0 0 10 5 5 0 0 0 0-10zm-.5.956c.057-.006.131.003.19 0 .007.028-.042.126-.109.272-.423.925-.447 2.009-.054 2.588.071.105.135.204.135.217 0 .013-.076.027-.163.027-.203 0-.396-.124-.79-.436-.174-.138-.401-.254-.49-.272-.137-.027-.175-.015-.353.164-.167.166-.218.256-.218.408 0 .578.685 1.036 1.96 1.306 1.731.367 2.158.697 2.206 1.607.06 1.142-.549 2.003-1.88 2.67-.158.079-.26.109-.326.134-.03-.002-.052.003-.081 0a.952.952 0 0 1-.028-.272c0-.606-.238-1.23-.598-1.579a4.604 4.604 0 0 0-.6-.435c-.232-.144-.466-.31-.518-.38-.086-.119-.093-.192-.026-.41.12-.398.264-.62.544-.872.146-.132.294-.241.326-.244.033-.002-.186-.069-.516-.137a9.3 9.3 0 0 1-1.063-.3c-.456-.165-1.071-.51-1.306-.761l-.028-.028a4.378 4.378 0 0 1 2.532-2.967c.262-.111.533-.188.818-.246.142-.029.289-.04.435-.054zm4.084 2.042c.102.063.488.9.598 1.307.143.527.133 1.437 0 1.96-.05.2-.113.386-.135.41-.021.022-.1-.11-.191-.273-.091-.162-.384-.507-.626-.763-.701-.74-.811-1.125-.518-1.715.148-.297.793-.975.872-.926z"/><path style="opacity:.2;fill:#fff" d="M3.316 9.496a3.297 3.297 0 0 0-.187.502 3.297 3.297 0 0 0 1.52 1.959l9.703 5.602a3.297 3.297 0 0 0 3.296 0l9.704-5.602a3.297 3.297 0 0 0 1.521-1.959 3.297 3.297 0 0 0-.19-.496 3.297 3.297 0 0 1-1.331 1.455l-9.704 5.602a3.297 3.297 0 0 1-3.296 0l-9.704-5.602a3.297 3.297 0 0 1-1.332-1.46z"/><path style="fill:#fff;opacity:.1" d="M16 1c-3.878 0-7 3.122-7 7 0 .17.014.334.025.5A6.977 6.977 0 0 1 16 2c3.71 0 6.72 2.858 6.975 6.5.011-.166.025-.33.025-.5 0-3.878-3.122-7-7-7z"/></svg>
